X: 1
T: La Grande Gigue Simple
M: 3/2
L: 1/8
R: slip reel
K: Fmaj
fagf egce gceg|fagf ecfc dcAc|fagf egce gceg|fgab c'afd c2Ac|fagf egce gceg|
fagf ecfc dcAc|fagf egce gceg|fa~a2 bgeg fage|fgab c'afa bgeg|fgab c'afd c2AG||
|:~F3G AFGF GBAG|~F3G AFAd c2AG|~F3G AFGF GBAG|1 ~F3G AFAd c2AG:|2 ~F3G AFAd c2Ac:|
